!!!OTL: Des Pfalzgrafen Töchterlein, (51c), S. 162
!!!id: T0189
**kern
*clefG2
*k[f#c#]
*D:
{8a
8b
8a
=1
4f#
8d
8d
16f#
16f#
8f#
=2
4e}
8r
=3
{8dd
8cc#
8cc#
=4
4b
4f#
8b
8b
=5
4a}
8r
=6
{8a
8b
8cc#
=7
4dd
8a
8a
16cc#
16cc#
8cc#
=8
4b}
8r
=9
{8dd
8cc#
8b
=10
4a
4a
8g
8e
=11
4d}
8r
==
*-
!!!minrhy: 16
!!!meters: 3/4 ]  ZZ[4
!!!cut: Des Pfalzgrafen Töchterlein, (51c), S. 162
!!!reg: Luxemburg
!!!trd: Singendes Volk, Esch-Alzette 1937 posth.
!!!rhy1: X_X_X_  X__X_X_XXX_  X__0_
!!!rhy2: X_X_X_  X__X__X_X_  X__0_
!!!key: T0189  16  D 3/4 ]  ZZ[4
!!!mod: HEPTATONIK IONISCH]  AMBITUS[8
!!!kad: 2561
!!!akz: 32_65_+16_51_
!!!fot: 'a__as"b__c__
!!!for: 'a__b__a__b__
!!!fok: '\__Vd_^a_\__
!! PHRAS[AUFTAKTIG]
!!!fkt: Liebeslieder
!!!bem1: Esch-Alz., Sch&uuml;ler Hut, 1922,
!!!bem2: gelernt in Diekirch von der Mutter;
!!!bem3: (51d)- Fels, fff Goedert, aufgeschrieben am 16.3.1930;
!!!bem4: (51e)- Rodershausen, hhh Theodor Lentz, 1930,
!!!bem5: mitgeteilt von Josef Bour (Lehrer)
!! THILL, Mathias:
!! PR[31] 2K[2] 2G[10] 3K[2] 3G[8] 4A[8] 4Ü[0] 5A[0] 6K[0] 6G[0]
!! 7K[0] 7G[0] 8A[0] MEHR[0] SI[31] ABS[48] SR[13] SP[19]
!! ST[11] 2k[8] 2g[25] 3k[0] 3g[2] 4d[0] 4ü[0] 5d[0] 6k[0] 6g[2]
!! 7k[0] 7g[0] 8d[0] mehr[0] si[38] dm[-7] sr[33] sp[4]
!! 1F[15] 2F[56] 3F[23] 4F[0] LF[0] 2P[0] 3P[6] 4P[0] TRI[0] DF[4] AB[52]
!! TF[0] U3K[0] U3[0] U4[0] U4Ü[0] U5[8] U6K[0] U6[0] U7K[0] U7[0]
!! N1[12] N2K[0] N2[16] N3K[0] N3[18] N4[18] N4Ü[0] N5[18] N6K[0] N6[8]
!!!n7k: 0] N7[0] O1[0] O2K[0] O2[0] O3K[0] O3[0] HÖ[0
!!!RNB: symbol: &uuml;  = u umlaut (UTF-8: Ã¼)
